X:1
T:Title
%%score { ( 1 3 ) | ( 2 4 ) }
L:1/8
Q:1/4=110
M:4/4
K:Db
V:1 treble nm="Grand Piano"
V:3 treble 
V:2 bass 
V:4 bass 
V:1
 F4 F2 F2 | A4 D4 | E2 F2 G2 [CA]2 | [DF]6 z2 | [FA]4 [EA]2 [EA]2 | [Dd]4 [DF]4 | =G2 G2 A2 B2 | %7
w: I.~H.~Meredith * *|||||||
 A6 z2 | e4 z4 | d4 A4 | G2 G2 B2 G2 | E6 z2 | F4 [FA]2 [FB]2 | A2 G2 d2 G2 | F4 [CE]4 | %15
w: ||||||||
 [A,D]6 z2 | [FA]4 [DF]2 z2 | [fa]4 f2 z2 | E2 E2 D2 E2 | F2 A2 E4 | [FA]4 [DF]2 z2 | [fa]4 f2 z2 | %22
w: |||||||
 E2 F2 G2 d2 | F4 E4 |[M:11/8] D-D-D-D-D-D- D3 z2 |] %25
w: |||
V:2
 [D,A,D]4 [D,A,D]2 [D,A,D]2 | [F,A,D]4 [F,A,]4 | [G,B,D]2 [F,B,D]2 [E,B,D]2 [A,,A,]2 | [D,A,]6 z2 | %4
 [D,A,]4 [C,A,]2 [C,A,]2 | [B,,F,]4 [B,,B,]4 | [E,B,D]2 [E,B,D]2 [E,F,D]2 [E,=G,D]2 | [A,C]6 z2 | %8
 E4 z4 | [F,A,D]4 [F,A,D]4 | [E,B,D]2 [E,B,D]2 [E,G,D]2 [E,B,D]2 | D4 z4 | %12
 [D,A,D]4 [D,_C]2 [D,C]2 | [G,B,D]2 [G,B,D]2 [G,B,D]2 [E,=A,D]2 | [A,D]4 [A,,G,]4 | [D,F,]6 z2 | %16
 [D,A,]4 [D,A,]2 z2 | [DA]4 [DAd]2 z2 | [A,C]2 [G,A,C]2 [F,A,]2 [E,A,C]2 | %19
 [D,A,D]2 [F,A,D]2 [A,C]4 | [D,A,]4 [D,A,]2 z2 | [DA]4 [DAd]2 z2 | %22
 [G,B,D]2 [F,B,D]2 [E,B,D]2 [G,=A,D]2 | D2 z2 B,2 z2 | %24
[M:11/8] [D,F,A,]-[D,F,A,]-[D,F,A,]-[D,F,A,]-[D,F,A,]-[D,F,A,]- [D,F,A,]3 z2 |] %25
V:3
 x8 | x8 | x8 | x8 | x8 | x8 | x8 | x8 | z2 A,2 A2 A2 | x8 | x8 | z4 C2 z2 | x8 | x8 | x8 | x8 | %16
 x8 | x8 | x8 | x8 | x8 | x8 | x8 | z2 C2 z2 C2 |[M:11/8] x11 |] %25
V:4
 x8 | x8 | x8 | x8 | x8 | x8 | x8 | x8 | [A,C]2 z2 [G,B,E]2 [G,CE]2 | x8 | x8 | A,4- [A,,A,]2 z2 | %12
 x8 | x8 | x8 | x8 | x8 | x8 | x8 | x8 | x8 | x8 | x8 | A,4 [A,,G,]4 |[M:11/8] x11 |] %25

